vendor/shopware/storefront/Resources/app/storefront/dist/assets/icon/default/paperplane.svg

<svg xmlns="http://www.w3.org/2000/svg" width="24" height="24" viewBox="0 0 24 24">
  <path fill="#758CA3" fill-rule="evenodd" d="M6.72075922,13 L4.68973066,19.0930857 L19.6640227,12 L4.68973066,4.90691431 L6.72075922,11 L12,11 C12.5522847,11 13,11.4477153 13,12 C13,12.5522847 12.5522847,13 12,13 L6.72075922,13 Z M4.94590745,12 L2.0513167,3.31622777 C1.77281996,2.48073754 2.63217887,1.71925336 3.42808634,2.09626216 L22.4280863,11.0962622 C23.1906379,11.4574708 23.1906379,12.5425292 22.4280863,12.9037378 L3.42808634,21.9037378 C2.63217887,22.2807466 1.77281996,21.5192625 2.0513167,20.6837722 L4.94590745,12 Z"/>
</svg>

<svg xmlns="http://www.w3.org/2000/svg" width="24" height="24" viewBox="0 0 24 24"><path fill="#758CA3" fill-rule="evenodd" d="m6.7208 13-2.031 6.093L19.664 12 4.6897 4.907 6.7207 11H12c.5523 0 1 .4477 1 1s-.4477 1-1 1H6.7208zm-1.7749-1L2.0513 3.3162c-.2785-.8355.5809-1.597 1.3768-1.22l19 9c.7625.3613.7625 1.4463 0 1.8075l-19 9c-.796.377-1.6553-.3844-1.3768-1.22L4.946 12z"/></svg>
